humanity-icon-theme/Humanity/apps/48/internet-feed-reader.svg

<?xml version="1.0" encoding="UTF-8" standalone="no"?>
<!-- Created with Inkscape (http://www.inkscape.org/) -->

<svg
   xmlns:svg="http://www.w3.org/2000/svg"
   xmlns="http://www.w3.org/2000/svg"
   xmlns:xlink="http://www.w3.org/1999/xlink"
   version="1.0"
   width="48"
   height="48"
   id="svg3637">
  <defs
     id="defs3639">
    <radialGradient
       cx="4.9929786"
       cy="43.5"
       r="2.5"
       fx="4.9929786"
       fy="43.5"
       id="radialGradient3627"
       xlink:href="#linearGradient3688"
       gradientUnits="userSpaceOnUse"
       gradientTransform="matrix(2.4045408,0,0,0.8,27.985756,10.199998)" />
    <radialGradient
       cx="4.9929786"
       cy="43.5"
       r="2.5"
       fx="4.9929786"
       fy="43.5"
       id="radialGradient3625"
       xlink:href="#linearGradient3688"
       gradientUnits="userSpaceOnUse"
       gradientTransform="matrix(2.4045408,0,0,0.8,-52.014245,-79.800002)" />
    <radialGradient
       cx="4.9929786"
       cy="43.5"
       r="2.5"
       fx="4.9929786"
       fy="43.5"
       id="radialGradient3598"
       xlink:href="#linearGradient3688"
       gradientUnits="userSpaceOnUse"
       gradientTransform="matrix(2.4045408,0,0,0.8,27.985756,10.199998)" />
    <radialGradient
       cx="4.9929786"
       cy="43.5"
       r="2.5"
       fx="4.9929786"
       fy="43.5"
       id="radialGradient3613"
       xlink:href="#linearGradient3688"
       gradientUnits="userSpaceOnUse"
       gradientTransform="matrix(2.4045408,0,0,0.8,-52.014245,-79.800002)" />
    <linearGradient
       id="linearGradient2490-113-765">
      <stop
         id="stop3686"
         style="stop-color:#861318;stop-opacity:1"
         offset="0" />
      <stop
         id="stop3688"
         style="stop-color:#f67e2a;stop-opacity:1"
         offset="1" />
    </linearGradient>
    <linearGradient
       x1="48.87849"
       y1="46.970566"
       x2="-0.13584797"
       y2="-2.0421302"
       id="linearGradient3209"
       xlink:href="#linearGradient2490-113-765"
       gradientUnits="userSpaceOnUse"
       gradientTransform="matrix(0.9756098,0,0,0.9756098,0.5853659,2.053599)" />
    <linearGradient
       id="linearGradient3839">
      <stop
         id="stop3841"
         style="stop-color:#ffed8c;stop-opacity:1"
         offset="0" />
      <stop
         id="stop3843"
         style="stop-color:#fb9858;stop-opacity:1"
         offset="0.26238" />
      <stop
         id="stop3845"
         style="stop-color:#dc572a;stop-opacity:1"
         offset="0.66093999" />
      <stop
         id="stop3847"
         style="stop-color:#9f3110;stop-opacity:1"
         offset="1" />
    </linearGradient>
    <radialGradient
       cx="10.83973"
       cy="12.352198"
       r="19.99999"
       fx="10.83973"
       fy="12.352198"
       id="radialGradient3207"
       xlink:href="#linearGradient3839"
       gradientUnits="userSpaceOnUse"
       gradientTransform="matrix(5.8795466e-8,2.0099739,-2.8994031,0,49.484209,-9.127016)" />
    <linearGradient
       x1="30.149998"
       y1="5.0700607"
       x2="30.149998"
       y2="44.020058"
       id="linearGradient3226"
       xlink:href="#linearGradient3308-4-6"
       gradientUnits="userSpaceOnUse"
       gradientTransform="matrix(0.9756098,0,0,0.9756098,0.5853659,2.053599)" />
    <linearGradient
       x1="15.799999"
       y1="20.445061"
       x2="15.799999"
       y2="44.10902"
       id="linearGradient3234"
       xlink:href="#linearGradient3308-4-6"
       gradientUnits="userSpaceOnUse"
       gradientTransform="matrix(0.9756098,0,0,0.9756098,0.5853659,2.053599)" />
    <linearGradient
       id="linearGradient3308-4-6">
      <stop
         id="stop3310-1-4"
         style="stop-color:#ffffff;stop-opacity:1"
         offset="0" />
      <stop
         id="stop3312-5-3"
         style="stop-color:#ffffff;stop-opacity:0"
         offset="1" />
    </linearGradient>
    <linearGradient
       x1="9.6499996"
       y1="36.845058"
       x2="9.6499996"
       y2="42.99506"
       id="linearGradient3236"
       xlink:href="#linearGradient3308-4-6"
       gradientUnits="userSpaceOnUse"
       gradientTransform="matrix(0.9756098,0,0,0.9756098,0.5853659,2.053599)" />
    <linearGradient
       id="linearGradient8265-821-176-38-919-66-249-7-7">
      <stop
         id="stop2687-1-9"
         style="stop-color:#ffffff;stop-opacity:1"
         offset="0" />
      <stop
         id="stop2689-5-4"
         style="stop-color:#ffffff;stop-opacity:0"
         offset="1" />
    </linearGradient>
    <linearGradient
       x1="16.626165"
       y1="15.298182"
       x2="20.054544"
       y2="24.627615"
       id="linearGradient3569"
       xlink:href="#linearGradient8265-821-176-38-919-66-249-7-7"
       gradientUnits="userSpaceOnUse"
       gradientTransform="matrix(0.9578231,0,0,1.0182827,4.401362,6.1800537)" />
    <linearGradient
       id="linearGradient3688">
      <stop
         id="stop3690"
         style="stop-color:#000000;stop-opacity:1"
         offset="0" />
      <stop
         id="stop3692"
         style="stop-color:#000000;stop-opacity:0"
         offset="1" />
    </linearGradient>
    <radialGradient
       cx="-8.3116722"
       cy="44.750004"
       r="2.5"
       fx="-8.3116722"
       fy="44.750004"
       id="radialGradient3631"
       xlink:href="#linearGradient3688"
       gradientUnits="userSpaceOnUse"
       gradientTransform="matrix(9.4253462,0,0,0.65509434,104.41021,15.922004)" />
  </defs>
  <g
     id="layer1">
    <path
       d="m 4.4878049,5.9878051 0,6.8627699 C 22.077017,13.178336 36.285516,27.406039 36.608817,45.012195 l 6.903378,0 C 43.185827,23.596236 25.883677,6.3137876 4.4878049,5.9878051 z m 0,15.7965529 0,6.172432 C 13.771844,28.279836 21.2198,35.720135 21.54321,45.012195 l 6.172432,0 C 27.389625,32.293953 17.194313,22.109988 4.4878049,21.784358 z m 4.0608109,15.634121 c -1.0887288,3.2e-5 -1.9260781,0.382279 -2.6801356,1.137027 -0.7550761,0.742343 -1.1370262,1.549796 -1.1370266,2.639527 0,1.072702 0.3846094,1.899856 1.1370266,2.639527 0.750161,0.737495 1.5830634,1.096445 2.6801356,1.096419 1.0630488,2.5e-5 1.8601942,-0.356961 2.5989192,-1.096419 0.756447,-0.757151 1.137014,-1.583964 1.137026,-2.639527 -1.2e-5,-1.089738 -0.381951,-1.897187 -1.137026,-2.639527 -0.74261,-0.756804 -1.5444256,-1.136996 -2.5989192,-1.137027 z"
       id="path8636"
       style="font-size:13.58991337px;font-style:normal;font-variant:normal;font-weight:bold;font-stretch:normal;text-align:start;line-height:125%;writing-mode:lr-tb;text-anchor:start;fill:url(#radialGradient3207);fill-opacity:1;fill-rule:nonzero;stroke:url(#linearGradient3209);stroke-width:0.97560978;stroke-linecap:round;stroke-linejoin:round;stroke-miterlimit:4;stroke-opacity:1;stroke-dasharray:none;stroke-dashoffset:0;marker:none;visibility:visible;display:inline;overflow:visible;enable-background:accumulate;font-family:Bitstream Vera Serif" />
    <path
       d="m 5.4375,7.03125 c 0,1.65625 0,3.3125 0,4.96875 11.376981,0.411387 22.223686,7.135797 27.722152,17.092145 2.574952,4.562658 4.047028,9.737277 4.277848,14.970355 1.677083,0 3.354167,0 5.03125,0 C 42.099811,32.605861 36.258375,21.501875 27.045192,14.687552 20.837478,10.016581 13.199618,7.318626 5.4375,7.03125 z"
       id="path3232"
       style="font-size:13.58991337px;font-style:normal;font-variant:normal;font-weight:bold;font-stretch:normal;text-align:start;line-height:125%;writing-mode:lr-tb;text-anchor:start;opacity:0.4;fill:none;stroke:url(#linearGradient3226);stroke-width:0.97560978;stroke-linecap:round;stroke-linejoin:round;stroke-miterlimit:4;stroke-opacity:1;stroke-dasharray:none;stroke-dashoffset:0;marker:none;visibility:visible;display:inline;overflow:visible;enable-background:accumulate;font-family:Bitstream Vera Serif" />
    <path
       d="m 5.4375,22.84375 c 0,1.4375 0,2.875 0,4.3125 7.738019,0.525412 14.698113,6.457099 16.434463,14.017181 0.476244,1.233709 -0.14048,3.435244 1.761783,2.889069 1.007501,0 2.015003,0 3.022504,0 C 26.192732,35.715269 20.707275,27.912488 12.998367,24.671197 10.607188,23.635143 8.0370901,23.018747 5.4375,22.84375 z"
       id="path3230"
       style="font-size:13.58991337px;font-style:normal;font-variant:normal;font-weight:bold;font-stretch:normal;text-align:start;line-height:125%;writing-mode:lr-tb;text-anchor:start;opacity:0.4;fill:none;stroke:url(#linearGradient3234);stroke-width:0.97560978;stroke-linecap:round;stroke-linejoin:round;stroke-miterlimit:4;stroke-opacity:1;stroke-dasharray:none;stroke-dashoffset:0;marker:none;visibility:visible;display:inline;overflow:visible;enable-background:accumulate;font-family:Bitstream Vera Serif" />
    <path
       d="m 8.5625,38.34375 c -2.1011622,-0.09527 -3.7948688,2.613452 -2.4282763,4.366556 1.0297532,1.675197 3.7427811,1.754689 4.7579883,0.02165 C 12.176216,40.959624 10.661459,38.35276 8.5625,38.34375 z"
       id="path3219"
       style="font-size:13.58991337px;font-style:normal;font-variant:normal;font-weight:bold;font-stretch:normal;text-align:start;line-height:125%;writing-mode:lr-tb;text-anchor:start;opacity:0.4;fill:none;stroke:url(#linearGradient3236);stroke-width:0.97560978;stroke-linecap:round;stroke-linejoin:round;stroke-miterlimit:4;stroke-opacity:1;stroke-dasharray:none;stroke-dashoffset:0;marker:none;visibility:visible;display:inline;overflow:visible;enable-background:accumulate;font-family:Bitstream Vera Serif" />
    <path
       d="M 4.46875,5.5 C 4.202595,5.5116078 3.9944302,5.7336502 4,6 l 0,6.84375 c -0.00269,0.133415 0.049124,0.262161 0.1434815,0.356519 0.094358,0.09436 0.2231037,0.146171 0.3565185,0.143481 10.587368,0.197287 19.884383,5.505937 25.625,13.5625 0.115014,0.155757 0.31093,0.229226 0.5,0.1875 l 7.4375,-1.25 c 0.149909,-0.0358 0.274255,-0.140008 0.335708,-0.28135 0.06145,-0.141341 0.05286,-0.303355 -0.02321,-0.4374 C 31.473754,13.530217 18.908304,5.7195215 4.5,5.5 4.489586,5.4996679 4.479164,5.4996679 4.46875,5.5 z m 0,15.78125 C 4.202595,21.292858 3.9944302,21.5149 4,21.78125 l 0,6.1875 c -0.00557,0.26635 0.202595,0.488392 0.46875,0.5 2.5346416,0.08819 4.9223361,0.715036 7.0625,1.78125 0.09792,0.04441 0.207725,0.05539 0.3125,0.03125 l 8.5625,-1.46875 c 0.171153,-0.03882 0.308497,-0.16617 0.360109,-0.333909 C 20.817971,28.310852 20.775976,28.128319 20.65625,28 16.435463,23.986651 10.762752,21.441746 4.5,21.28125 c -0.010414,-3.32e-4 -0.020836,-3.32e-4 -0.03125,0 z"
       id="path3390"
       style="opacity:0.2;fill:url(#linearGradient3569);fill-opacity:1;fill-rule:evenodd;stroke:none;stroke-width:1;marker:none;visibility:visible;display:inline;overflow:visible;enable-background:accumulate" />
    <path
       d="m 49.588679,45.237478 a 23.518868,1.6377358 0 0 1 -47.0377356,0 23.518868,1.6377358 0 1 1 47.0377356,0 z"
       id="path3629"
       style="opacity:0.3;fill:url(#radialGradient3631);fill-opacity:1;fill-rule:nonzero;stroke:none;stroke-width:1;marker:none;visibility:visible;display:inline;overflow:visible;enable-background:accumulate" />
  </g>
</svg>

<?xml version="1.0" encoding="UTF-8" standalone="no"?>
<!-- Created with Inkscape (http://www.inkscape.org/) -->
<svg
   xmlns:svg="http://www.w3.org/2000/svg"
   xmlns="http://www.w3.org/2000/svg"
   xmlns:xlink="http://www.w3.org/1999/xlink"
   version="1.0"
   width="48"
   height="48"
   id="svg3637">
  <defs
     id="defs3639">
    <radialGradient
       cx="4.9929786"
       cy="43.5"
       r="2.5"
       fx="4.9929786"
       fy="43.5"
       id="radialGradient3627"
       xlink:href="#linearGradient3688"
       gradientUnits="userSpaceOnUse"
       gradientTransform="matrix(2.4045408,0,0,0.8,27.985756,10.199998)" />
    <radialGradient
       cx="4.9929786"
       cy="43.5"
       r="2.5"
       fx="4.9929786"
       fy="43.5"
       id="radialGradient3625"
       xlink:href="#linearGradient3688"
       gradientUnits="userSpaceOnUse"
       gradientTransform="matrix(2.4045408,0,0,0.8,-52.014245,-79.800002)" />
    <radialGradient
       cx="4.9929786"
       cy="43.5"
       r="2.5"
       fx="4.9929786"
       fy="43.5"
       id="radialGradient3598"
       xlink:href="#linearGradient3688"
       gradientUnits="userSpaceOnUse"
       gradientTransform="matrix(2.4045408,0,0,0.8,27.985756,10.199998)" />
    <radialGradient
       cx="4.9929786"
       cy="43.5"
       r="2.5"
       fx="4.9929786"
       fy="43.5"
       id="radialGradient3613"
       xlink:href="#linearGradient3688"
       gradientUnits="userSpaceOnUse"
       gradientTransform="matrix(2.4045408,0,0,0.8,-52.014245,-79.800002)" />
    <linearGradient
       id="linearGradient2490-113-765">
      <stop
         id="stop3686"
         style="stop-color:#861318;stop-opacity:1"
         offset="0" />
      <stop
         id="stop3688"
         style="stop-color:#f67e2a;stop-opacity:1"
         offset="1" />
    </linearGradient>
    <linearGradient
       x1="24"
       y1="44"
       x2="24"
       y2="3.8990016"
       id="linearGradient3209"
       xlink:href="#linearGradient2490-113-765"
       gradientUnits="userSpaceOnUse"
       gradientTransform="matrix(0.9756098,0,0,0.9756098,0.5853659,2.053599)" />
    <linearGradient
       id="linearGradient3839">
      <stop
         id="stop3841"
         style="stop-color:#ffed8c;stop-opacity:1"
         offset="0" />
      <stop
         id="stop3843"
         style="stop-color:#fb9858;stop-opacity:1"
         offset="0.26238" />
      <stop
         id="stop3845"
         style="stop-color:#dc572a;stop-opacity:1"
         offset="0.66093999" />
      <stop
         id="stop3847"
         style="stop-color:#9f3110;stop-opacity:1"
         offset="1" />
    </linearGradient>
    <radialGradient
       cx="12.011247"
       cy="10.290615"
       r="19.99999"
       fx="12.011247"
       fy="10.290615"
       id="radialGradient3207"
       xlink:href="#linearGradient3839"
       gradientUnits="userSpaceOnUse"
       gradientTransform="matrix(5.8795466e-8,2.0099739,-2.8994031,0,49.484209,-9.127016)" />
    <linearGradient
       x1="30.149998"
       y1="5.0700607"
       x2="30.149998"
       y2="44.020058"
       id="linearGradient3226"
       xlink:href="#linearGradient3308-4-6"
       gradientUnits="userSpaceOnUse"
       gradientTransform="matrix(0.9756098,0,0,0.9756098,0.5853659,2.053599)" />
    <linearGradient
       x1="15.799999"
       y1="20.445061"
       x2="15.799999"
       y2="44.10902"
       id="linearGradient3234"
       xlink:href="#linearGradient3308-4-6"
       gradientUnits="userSpaceOnUse"
       gradientTransform="matrix(0.9756098,0,0,0.9756098,0.5853659,2.053599)" />
    <linearGradient
       id="linearGradient3308-4-6">
      <stop
         id="stop3310-1-4"
         style="stop-color:#ffffff;stop-opacity:1"
         offset="0" />
      <stop
         id="stop3312-5-3"
         style="stop-color:#ffffff;stop-opacity:0"
         offset="1" />
    </linearGradient>
    <linearGradient
       x1="9.6499996"
       y1="36.845058"
       x2="9.6499996"
       y2="42.99506"
       id="linearGradient3236"
       xlink:href="#linearGradient3308-4-6"
       gradientUnits="userSpaceOnUse"
       gradientTransform="matrix(0.9756098,0,0,0.9756098,0.5853659,2.053599)" />
    <linearGradient
       id="linearGradient8265-821-176-38-919-66-249-7-7">
      <stop
         id="stop2687-1-9"
         style="stop-color:#ffffff;stop-opacity:1"
         offset="0" />
      <stop
         id="stop2689-5-4"
         style="stop-color:#ffffff;stop-opacity:0"
         offset="1" />
    </linearGradient>
    <linearGradient
       x1="16.626165"
       y1="15.298182"
       x2="20.054544"
       y2="24.627615"
       id="linearGradient3569"
       xlink:href="#linearGradient8265-821-176-38-919-66-249-7-7"
       gradientUnits="userSpaceOnUse"
       gradientTransform="matrix(0.9578231,0,0,1.0182827,4.401362,6.1800537)" />
    <linearGradient
       id="linearGradient3688">
      <stop
         id="stop3690"
         style="stop-color:#000000;stop-opacity:1"
         offset="0" />
      <stop
         id="stop3692"
         style="stop-color:#000000;stop-opacity:0"
         offset="1" />
    </linearGradient>
    <radialGradient
       cx="-8.3116722"
       cy="44.750004"
       r="2.5"
       fx="-8.3116722"
       fy="44.750004"
       id="radialGradient3631"
       xlink:href="#linearGradient3688"
       gradientUnits="userSpaceOnUse"
       gradientTransform="matrix(2.4045408,0,0,0.8,27.985756,10.199998)" />
  </defs>
  <g
     id="layer1">
    <g
       transform="translate(-16,0)"
       id="g3619">
      <rect
         width="6"
         height="4"
         x="-40"
         y="-47"
         transform="scale(-1,-1)"
         id="rect3621"
         style="opacity:0.3;fill:url(#radialGradient3625);fill-opacity:1;stroke:none" />
      <rect
         width="6"
         height="4"
         x="40"
         y="43"
         id="rect3623"
         style="opacity:0.3;fill:url(#radialGradient3627);fill-opacity:1;stroke:none" />
    </g>
    <g
       id="g3615">
      <rect
         width="6"
         height="4"
         x="-40"
         y="-47"
         transform="scale(-1,-1)"
         id="rect3611"
         style="opacity:0.3;fill:url(#radialGradient3613);fill-opacity:1;stroke:none" />
      <rect
         width="6"
         height="4"
         x="40"
         y="43"
         id="rect2801"
         style="opacity:0.3;fill:url(#radialGradient3598);fill-opacity:1;stroke:none" />
    </g>
    <path
       d="M 4.4878049,5.9878051 L 4.4878049,12.850575 C 22.077017,13.178336 36.285516,27.406039 36.608817,45.012195 L 43.512195,45.012195 C 43.185827,23.596236 25.883677,6.3137876 4.4878049,5.9878051 z M 4.4878049,21.784358 L 4.4878049,27.95679 C 13.771844,28.279836 21.2198,35.720135 21.54321,45.012195 L 27.715642,45.012195 C 27.389625,32.293953 17.194313,22.109988 4.4878049,21.784358 z M 8.5486158,37.418479 C 7.459887,37.418511 6.6225377,37.800758 5.8684802,38.555506 C 5.1134041,39.297849 4.731454,40.105302 4.7314536,41.195033 C 4.7314536,42.267735 5.116063,43.094889 5.8684802,43.83456 C 6.6186412,44.572055 7.4515436,44.931005 8.5486158,44.930979 C 9.6116646,44.931004 10.40881,44.574018 11.147535,43.83456 C 11.903982,43.077409 12.284549,42.250596 12.284561,41.195033 C 12.284549,40.105295 11.90261,39.297846 11.147535,38.555506 C 10.404925,37.798702 9.6031094,37.41851 8.5486158,37.418479 z"
       id="path8636"
       style="font-size:13.58991337px;font-style:normal;font-variant:normal;font-weight:bold;font-stretch:normal;text-align:start;line-height:125%;writing-mode:lr-tb;text-anchor:start;opacity:1;fill:url(#radialGradient3207);fill-opacity:1;fill-rule:nonzero;stroke:url(#linearGradient3209);stroke-width:0.97560978;stroke-linecap:round;stroke-linejoin:round;marker:none;marker-start:none;marker-mid:none;marker-end:none;stroke-miterlimit:4;stroke-dasharray:none;stroke-dashoffset:0;stroke-opacity:1;visibility:visible;display:inline;overflow:visible;enable-background:accumulate;font-family:Bitstream Vera Serif" />
    <path
       d="M 5.4375,7.03125 C 5.4375,8.6875 5.4375,10.34375 5.4375,12 C 16.814481,12.411387 27.661186,19.135797 33.159652,29.092145 C 35.734604,33.654803 37.20668,38.829422 37.4375,44.0625 C 39.114583,44.0625 40.791667,44.0625 42.46875,44.0625 C 42.099811,32.605861 36.258375,21.501875 27.045192,14.687552 C 20.837478,10.016581 13.199618,7.318626 5.4375,7.03125 z"
       id="path3232"
       style="font-size:13.58991337px;font-style:normal;font-variant:normal;font-weight:bold;font-stretch:normal;text-align:start;line-height:125%;writing-mode:lr-tb;text-anchor:start;opacity:0.4;fill:none;fill-opacity:1;fill-rule:nonzero;stroke:url(#linearGradient3226);stroke-width:0.97560978;stroke-linecap:round;stroke-linejoin:round;marker:none;marker-start:none;marker-mid:none;marker-end:none;stroke-miterlimit:4;stroke-dasharray:none;stroke-dashoffset:0;stroke-opacity:1;visibility:visible;display:inline;overflow:visible;enable-background:accumulate;font-family:Bitstream Vera Serif" />
    <path
       d="M 5.4375,22.84375 C 5.4375,24.28125 5.4375,25.71875 5.4375,27.15625 C 13.175519,27.681662 20.135613,33.613349 21.871963,41.173431 C 22.348207,42.40714 21.731483,44.608675 23.633746,44.0625 C 24.641247,44.0625 25.648749,44.0625 26.65625,44.0625 C 26.192732,35.715269 20.707275,27.912488 12.998367,24.671197 C 10.607188,23.635143 8.0370901,23.018747 5.4375,22.84375 z"
       id="path3230"
       style="font-size:13.58991337px;font-style:normal;font-variant:normal;font-weight:bold;font-stretch:normal;text-align:start;line-height:125%;writing-mode:lr-tb;text-anchor:start;opacity:0.4;fill:none;fill-opacity:1;fill-rule:nonzero;stroke:url(#linearGradient3234);stroke-width:0.97560978;stroke-linecap:round;stroke-linejoin:round;marker:none;marker-start:none;marker-mid:none;marker-end:none;stroke-miterlimit:4;stroke-dasharray:none;stroke-dashoffset:0;stroke-opacity:1;visibility:visible;display:inline;overflow:visible;enable-background:accumulate;font-family:Bitstream Vera Serif" />
    <path
       d="M 8.5625,38.34375 C 6.4613378,38.248482 4.7676312,40.957202 6.1342237,42.710306 C 7.1639769,44.385503 9.8770048,44.464995 10.892212,42.731957 C 12.176216,40.959624 10.661459,38.35276 8.5625,38.34375 z"
       id="path3219"
       style="font-size:13.58991337px;font-style:normal;font-variant:normal;font-weight:bold;font-stretch:normal;text-align:start;line-height:125%;writing-mode:lr-tb;text-anchor:start;opacity:0.4;fill:none;fill-opacity:1;fill-rule:nonzero;stroke:url(#linearGradient3236);stroke-width:0.97560978;stroke-linecap:round;stroke-linejoin:round;marker:none;marker-start:none;marker-mid:none;marker-end:none;stroke-miterlimit:4;stroke-dasharray:none;stroke-dashoffset:0;stroke-opacity:1;visibility:visible;display:inline;overflow:visible;enable-background:accumulate;font-family:Bitstream Vera Serif" />
    <path
       d="M 4.46875,5.5 C 4.202595,5.5116078 3.9944302,5.7336502 4,6 L 4,12.84375 C 3.9973097,12.977165 4.0491238,13.105911 4.1434815,13.200269 C 4.2378392,13.294626 4.3665852,13.34644 4.5,13.34375 C 15.087368,13.541037 24.384383,18.849687 30.125,26.90625 C 30.240014,27.062007 30.43593,27.135476 30.625,27.09375 L 38.0625,25.84375 C 38.212409,25.807954 38.336755,25.703742 38.398208,25.5624 C 38.459661,25.421059 38.451065,25.259045 38.375,25.125 C 31.473754,13.530217 18.908304,5.7195215 4.5,5.5 C 4.489586,5.4996679 4.479164,5.4996679 4.46875,5.5 z M 4.46875,21.28125 C 4.202595,21.292858 3.9944302,21.5149 4,21.78125 L 4,27.96875 C 3.9944302,28.2351 4.202595,28.457142 4.46875,28.46875 C 7.0033916,28.556945 9.3910861,29.183786 11.53125,30.25 C 11.629171,30.294405 11.738975,30.305385 11.84375,30.28125 L 20.40625,28.8125 C 20.577403,28.773682 20.714747,28.64633 20.766359,28.478591 C 20.817971,28.310852 20.775976,28.128319 20.65625,28 C 16.435463,23.986651 10.762752,21.441746 4.5,21.28125 C 4.489586,21.280918 4.479164,21.280918 4.46875,21.28125 z"
       id="path3390"
       style="opacity:0.2;fill:url(#linearGradient3569);fill-opacity:1;fill-rule:evenodd;stroke:none;stroke-width:1;stroke-linecap:butt;stroke-linejoin:miter;marker:none;marker-start:none;marker-mid:none;marker-end:none;stroke-miterlimit:4;stroke-dasharray:none;stroke-dashoffset:0;stroke-opacity:1;visibility:visible;display:inline;overflow:visible;enable-background:accumulate" />
    <path
       d="M 14,46 A 6,2 0 1 1 2,46 A 6,2 0 1 1 14,46 z"
       transform="matrix(0.75,0,0,1,2.5,-1)"
       id="path3629"
       style="opacity:0.3;fill:url(#radialGradient3631);fill-opacity:1;fill-rule:nonzero;stroke:none;stroke-width:1;stroke-linecap:butt;stroke-linejoin:miter;marker:none;marker-start:none;marker-mid:none;marker-end:none;stroke-miterlimit:4;stroke-dasharray:none;stroke-dashoffset:0;stroke-opacity:1;visibility:visible;display:inline;overflow:visible;enable-background:accumulate" />
  </g>
</svg>
